public/favicon.svg

<svg width="242" height="362" viewBox="0 0 242 362" fill="none" xmlns="http://www.w3.org/2000/svg">
<path d="M201 1H41C18.9086 1 1 18.9086 1 41V321C1 343.091 18.9086 361 41 361H201C223.091 361 241 343.091 241 321V41C241 18.9086 223.091 1 201 1Z" fill="white" stroke="black" stroke-width="2"/>
<path d="M201 21H41C29.9543 21 21 29.9543 21 41V321C21 332.046 29.9543 341 41 341H201C212.046 341 221 332.046 221 321V41C221 29.9543 212.046 21 201 21Z" fill="#E80000"/>
<g clip-path="url(#clip0_19_68)">
<path opacity="0.941" d="M206.765 207.842V203.604C205.935 201.821 205.23 199.938 204.65 197.953C203.243 195.927 201.598 195.613 199.716 197.011C200.715 198.621 201.655 200.269 202.536 201.956C200.271 205.325 197.295 207.836 193.607 209.49C186.947 210.921 180.368 210.529 173.869 208.313C173.773 209.203 174.086 209.909 174.809 210.432C176.062 211.06 177.315 211.688 178.568 212.316C177.79 213.177 176.85 213.805 175.749 214.199C171.442 214.812 167.291 214.263 163.295 212.551C162.694 212.604 162.302 212.919 162.12 213.493C163.475 214.722 165.042 215.585 166.82 216.083C164.362 216.948 161.856 216.948 159.301 216.083C156.372 215.125 153.474 214.104 150.607 213.022C149.851 213.149 149.303 213.542 148.962 214.199C149.673 214.877 149.83 215.583 149.432 216.319C145.215 218.098 140.829 218.647 136.273 217.967C131.673 216.692 127.052 215.514 122.41 214.435C117.363 215.126 112.429 216.303 107.607 217.967C103.859 218.527 100.1 218.683 96.3279 218.438C94.2117 218.406 92.2534 217.856 90.4536 216.789C91.0767 215.503 91.7816 214.169 92.5683 212.787C92.5072 212.288 92.2722 211.896 91.8634 211.609C87.006 213.441 82.0716 215.089 77.0601 216.554C75.1803 216.868 73.3005 216.868 71.4208 216.554L70.9508 216.083C72.1363 215.839 73.0762 215.211 73.7705 214.199C73.4572 213.885 73.1439 213.572 72.8306 213.258C70.4809 213.101 68.1311 212.944 65.7814 212.787C63.7003 212.458 61.8205 211.674 60.1421 210.432C61.3327 210.189 62.3509 209.64 63.1967 208.784C63.4072 207.885 63.0156 207.335 62.0219 207.136C57.6067 206.913 53.2206 206.442 48.8634 205.723C45.8556 204.85 43.3492 203.28 41.3443 201.014C41.8019 199.874 42.1152 198.696 42.2842 197.482C41.13 195.167 39.6418 195.01 37.8197 197.011C35.3909 202.019 34.8426 207.199 36.1749 212.551H38.0546C38.2675 209.908 38.8942 207.397 39.9344 205.017C41.6267 206.474 43.5065 207.651 45.5738 208.548C49.2036 209.576 52.8067 210.674 56.3825 211.845C58.9874 214.611 61.4154 217.515 63.6667 220.557C68.7195 228.33 73.8889 236.021 79.1749 243.632C88.1203 256 100.104 263.377 115.126 265.765C130.147 268.152 153.802 256.847 160.24 248.105C166.679 239.363 172.71 230.338 178.333 221.028C180.132 218.755 182.09 216.635 184.208 214.67C192.249 215.389 198.593 212.484 203.24 205.958C203.476 207.847 203.711 209.73 203.945 211.609C204.498 211.713 204.967 211.556 205.355 211.139C205.901 210.015 206.371 208.916 206.765 207.842Z" fill="black"/>
<path d="M147 157.5C162.815 157.5 175.5 143.991 175.5 127.5C175.5 111.009 162.815 97.5 147 97.5C131.185 97.5 118.5 111.009 118.5 127.5C118.5 143.991 131.185 157.5 147 157.5Z" fill="white" stroke="black" stroke-width="3"/>
<path d="M94 157.5C109.815 157.5 122.5 143.991 122.5 127.5C122.5 111.009 109.815 97.5 94 97.5C78.1845 97.5 65.5 111.009 65.5 127.5C65.5 143.991 78.1845 157.5 94 157.5Z" fill="white" stroke="black" stroke-width="3"/>
<circle cx="98" cy="127" r="11" fill="#0E0000"/>
<circle cx="144" cy="127" r="11" fill="#0E0000"/>
<path d="M121.5 207.5C138.775 207.5 152.5 191.891 152.5 173C152.5 154.109 138.775 138.5 121.5 138.5C104.225 138.5 90.5 154.109 90.5 173C90.5 191.891 104.225 207.5 121.5 207.5Z" fill="#FFAA00" stroke="black" stroke-width="3"/>
</g>
<defs>
<clipPath id="clip0_19_68">
<rect width="172" height="170" fill="white" transform="translate(35 96)"/>
</clipPath>
</defs>
</svg>

<svg xmlns="http://www.w3.org/2000/svg" width="242" height="362" fill="none"><path fill="#fff" stroke="#000" stroke-width="2" d="M201 1H41C18.909 1 1 18.909 1 41v280c0 22.091 17.909 40 40 40h160c22.091 0 40-17.909 40-40V41c0-22.091-17.909-40-40-40z"/><path fill="#E80000" d="M201 21H41c-11.046 0-20 8.954-20 20v280c0 11.046 8.954 20 20 20h160c11.046 0 20-8.954 20-20V41c0-11.046-8.954-20-20-20z"/><g clip-path="url(#a)"><path fill="#000" d="M206.765 207.842v-4.238a39.847 39.847 0 0 1-2.115-5.651c-1.407-2.026-3.052-2.34-4.934-.942a76.827 76.827 0 0 1 2.82 4.945c-2.265 3.369-5.241 5.88-8.929 7.534-6.66 1.431-13.239 1.039-19.738-1.177-.096.89.217 1.596.94 2.119l3.759 1.884a6.854 6.854 0 0 1-2.819 1.883c-4.307.613-8.458.064-12.454-1.648-.601.053-.993.368-1.175.942a11.527 11.527 0 0 0 4.7 2.59c-2.458.865-4.964.865-7.519 0a205.9 205.9 0 0 1-8.694-3.061c-.756.127-1.304.52-1.645 1.177.711.678.868 1.384.47 2.12-4.217 1.779-8.603 2.328-13.159 1.648a340.62 340.62 0 0 0-13.863-3.532 77.493 77.493 0 0 0-14.803 3.532c-3.748.56-7.507.716-11.28.471a11.671 11.671 0 0 1-5.873-1.649 68.402 68.402 0 0 1 2.114-4.002 1.619 1.619 0 0 0-.705-1.178 204.643 204.643 0 0 1-14.803 4.945c-1.88.314-3.76.314-5.64 0l-.47-.471c1.186-.244 2.126-.872 2.82-1.884l-.94-.941-7.049-.471a12.665 12.665 0 0 1-5.639-2.355 5.842 5.842 0 0 0 3.055-1.648c.21-.899-.181-1.449-1.175-1.648a117.006 117.006 0 0 1-13.159-1.413c-3.007-.873-5.514-2.443-7.519-4.709.458-1.14.771-2.318.94-3.532-1.154-2.315-2.642-2.472-4.464-.471-2.43 5.008-2.977 10.188-1.645 15.54h1.88a23.36 23.36 0 0 1 1.88-7.534 22.032 22.032 0 0 0 5.639 3.531 279.09 279.09 0 0 1 10.809 3.297 95.969 95.969 0 0 1 7.284 8.712 907.558 907.558 0 0 0 15.508 23.075c8.945 12.368 20.929 19.745 35.951 22.133 15.021 2.387 38.676-8.918 45.114-17.66a355.811 355.811 0 0 0 18.093-27.077 56.43 56.43 0 0 1 5.875-6.358c8.041.719 14.385-2.186 19.032-8.712l.705 5.651c.553.104 1.022-.053 1.41-.47a35.694 35.694 0 0 0 1.41-3.297z" opacity=".941"/><path fill="#fff" stroke="#000" stroke-width="3" d="M147 157.5c15.815 0 28.5-13.509 28.5-30s-12.685-30-28.5-30-28.5 13.509-28.5 30 12.685 30 28.5 30z"/><path fill="#fff" stroke="#000" stroke-width="3" d="M94 157.5c15.815 0 28.5-13.509 28.5-30s-12.685-30-28.5-30c-15.816 0-28.5 13.509-28.5 30s12.684 30 28.5 30z"/><circle cx="98" cy="127" r="11" fill="#0E0000"/><circle cx="144" cy="127" r="11" fill="#0E0000"/><path fill="#FA0" stroke="#000" stroke-width="3" d="M121.5 207.5c17.275 0 31-15.609 31-34.5s-13.725-34.5-31-34.5-31 15.609-31 34.5 13.725 34.5 31 34.5z"/></g><defs><clipPath id="a"><path fill="#fff" d="M35 96h172v170H35z"/></clipPath></defs></svg>
